X:68
T: Landsknecht - Marsch
N: A0419
O: Europa, Mitteleuropa, Deutschland
N: Forster V 1556 No. 37
R: Romanze, Ballade, Lied, Kriegslied
M: 4/2
L: 1/4
K: G
 |  |  | G2G2_B2B2 | G4=F2
F2 | _B2B2c4 | d4z2
d2 | d2d2d2d2 | _e4d2
d2 | d2d2d2c2 | _B4z4 |
d2d2d2c2 | _B4G2
G2 | _B2B2c2c2 | d4z2
d2 | d2d2d2d2 | _e4d2
dd | c2c2_B3A | G4d3d | c2c2A2A2 | G8

@@@ Tune index: 381
